X:113
T: ACH SCHWESTER DIE DU SICHER
N: B0144
O: Europa, Mitteleuropa, Deutschland, Priegnitz
R: Ballade, Romanze
M: 2/4
L: 1/16
K: G
d2 | g2fed2B2 | d2c2A2
c2 | B2cAAGGF | F2G2z2
d2 | g2fed2B2 | d2c2A2
c2 | B2cAAGGF | F2G2z2
d2 | F2A2G2B2 | A3cB2
d2 | g2feedd^c | ^c2d2z2
d2 | g2fed2B2 | d2c2A2
c2 | B2cAAGGF | F2G2z2

